X: 41875
T: Vladimir's Steamboat
R: reel
M: 4/4
K: Amixolydian
Acde dcAc|dedc AGED|Acde dcAF|~G3B AGED|
Acde dcAc|dega gedg|edBe dBAF|~G3B A4:|
a2e2 aba4|gaba gfef|edBd efge|ageg de|
a2e2 aba4|gaba gfef|edBd efec|dc A4|
a2e2 aba4|gaba gfef|edBd efge|ageg de|
abag egab|agea bagf|efed Bdef|ecdc A4||

